Catalina-light/apps/scalable/insomnia.svg

<?xml version="1.0" encoding="UTF-8" standalone="no"?>
<svg
   xmlns:dc="http://purl.org/dc/elements/1.1/"
   xmlns:cc="http://creativecommons.org/ns#"
   xmlns:rdf="http://www.w3.org/1999/02/22-rdf-syntax-ns#"
   xmlns:svg="http://www.w3.org/2000/svg"
   xmlns="http://www.w3.org/2000/svg"
   xmlns:xlink="http://www.w3.org/1999/xlink"
   xmlns:sodipodi="http://sodipodi.sourceforge.net/DTD/sodipodi-0.dtd"
   xmlns:inkscape="http://www.inkscape.org/namespaces/inkscape"
   height="128"
   width="128"
   version="1.1"
   id="svg444"
   sodipodi:docname="insomnia.svg"
   inkscape:version="0.92.4 5da689c313, 2019-01-14">
  <metadata
     id="metadata450">
    <rdf:RDF>
      <cc:Work
         rdf:about="">
        <dc:format>image/svg+xml</dc:format>
        <dc:type
           rdf:resource="http://purl.org/dc/dcmitype/StillImage" />
        <dc:title></dc:title>
      </cc:Work>
    </rdf:RDF>
  </metadata>
  <defs
     id="defs448">
    <linearGradient
       inkscape:collect="always"
       id="linearGradient1197">
      <stop
         style="stop-color:#bb7dff;stop-opacity:1"
         offset="0"
         id="stop1193" />
      <stop
         style="stop-color:#7c4eea;stop-opacity:1"
         offset="1"
         id="stop1195" />
    </linearGradient>
    <radialGradient
       id="a-3"
       gradientUnits="userSpaceOnUse"
       cy="43.5"
       cx="4.993"
       gradientTransform="matrix(2.0038,0,0,1.4,27.988,-17.4)"
       r="2.5">
      <stop
         stop-color="#181818"
         offset="0"
         id="stop1114" />
      <stop
         stop-color="#181818"
         stop-opacity="0"
         offset="1"
         id="stop1116" />
    </radialGradient>
    <radialGradient
       id="b-6"
       gradientUnits="userSpaceOnUse"
       cy="43.5"
       cx="4.993"
       gradientTransform="matrix(2.0038,0,0,1.4,-20.012,-104.4)"
       r="2.5">
      <stop
         stop-color="#181818"
         offset="0"
         id="stop1119" />
      <stop
         stop-color="#181818"
         stop-opacity="0"
         offset="1"
         id="stop1121" />
    </radialGradient>
    <linearGradient
       id="c-5"
       y2="39.999"
       gradientUnits="userSpaceOnUse"
       x2="25.058"
       y1="47.028"
       x1="25.058">
      <stop
         stop-color="#181818"
         stop-opacity="0"
         offset="0"
         id="stop1124" />
      <stop
         stop-color="#181818"
         offset=".5"
         id="stop1126" />
      <stop
         stop-color="#181818"
         stop-opacity="0"
         offset="1"
         id="stop1128" />
    </linearGradient>
    <linearGradient
       id="e-7"
       y2="43"
       gradientUnits="userSpaceOnUse"
       x2="24"
       gradientTransform="matrix(1.4324,0,0,1.4363,-2.378,-2.47)"
       y1="5"
       x1="24">
      <stop
         stop-color="#fff"
         offset="0"
         id="stop1131" />
      <stop
         stop-color="#fff"
         stop-opacity=".235"
         offset=".063"
         id="stop1133" />
      <stop
         stop-color="#fff"
         stop-opacity=".157"
         offset=".951"
         id="stop1135" />
      <stop
         stop-color="#fff"
         stop-opacity=".392"
         offset="1"
         id="stop1137" />
    </linearGradient>
    <radialGradient
       id="d-7"
       fx="6.2"
       gradientUnits="userSpaceOnUse"
       cy="9.957"
       cx="6.73"
       gradientTransform="matrix(0,13.394,-16.444,0,196.9,-114.89)"
       r="12.672">
      <stop
         stop-color="#bd94e7"
         offset="0"
         id="stop1140" />
      <stop
         stop-color="#7b6ca3"
         offset=".262"
         id="stop1142" />
      <stop
         stop-color="#574a76"
         offset=".705"
         id="stop1144" />
      <stop
         stop-color="#3f3654"
         offset="1"
         id="stop1146" />
    </radialGradient>
    <clipPath
       id="clipPath5025"
       clipPathUnits="userSpaceOnUse">
      <g
         inkscape:label="Clip"
         id="use5027">
        <rect
           y="37.601917"
           x="-2.6091127"
           height="32.53717"
           width="27.779377"
           id="rect5029"
           style="opacity:0.98000004;fill:#685d80;fill-opacity:1;stroke:#f9f9f9;stroke-width:0;stroke-miterlimit:4;stroke-dasharray:none;stroke-opacity:1" />
      </g>
    </clipPath>
    <clipPath
       id="clipPath5494"
       clipPathUnits="userSpaceOnUse">
      <rect
         y="-7.7317243"
         x="-2.7109578"
         height="50.296413"
         width="68.96933"
         id="rect5496"
         style="opacity:0.98000004;fill:#695c89;fill-opacity:1;stroke:#aa0000;stroke-width:0;stroke-miterlimit:4;stroke-dasharray:none;stroke-opacity:1" />
    </clipPath>
    <clipPath
       id="clipPath6207"
       clipPathUnits="userSpaceOnUse">
      <rect
         y="-7.7317243"
         x="-2.7109578"
         height="50.296413"
         width="68.065804"
         id="rect6209"
         style="opacity:0.98000004;fill:#695c89;fill-opacity:1;stroke:#aa0000;stroke-width:0;stroke-miterlimit:4;stroke-dasharray:none;stroke-opacity:1" />
    </clipPath>
    <clipPath
       id="clipPath6207-7"
       clipPathUnits="userSpaceOnUse">
      <rect
         y="-7.7317243"
         x="-2.7109578"
         height="50.296413"
         width="68.065804"
         id="rect6209-0"
         style="opacity:0.98000004;fill:#695c89;fill-opacity:1;stroke:#aa0000;stroke-width:0;stroke-miterlimit:4;stroke-dasharray:none;stroke-opacity:1" />
    </clipPath>
    <linearGradient
       inkscape:collect="always"
       xlink:href="#linearGradient1197"
       id="linearGradient1199"
       x1="30.014154"
       y1="25.305775"
       x2="90.509758"
       y2="102.05154"
       gradientUnits="userSpaceOnUse" />
  </defs>
  <sodipodi:namedview
     pagecolor="#ffffff"
     bordercolor="#666666"
     borderopacity="1"
     objecttolerance="10"
     gridtolerance="10"
     guidetolerance="10"
     inkscape:pageopacity="0"
     inkscape:pageshadow="2"
     inkscape:window-width="1920"
     inkscape:window-height="1028"
     id="namedview446"
     showgrid="false"
     inkscape:zoom="3.6875"
     inkscape:cx="17.26291"
     inkscape:cy="65.242869"
     inkscape:window-x="0"
     inkscape:window-y="26"
     inkscape:window-maximized="1"
     inkscape:current-layer="svg444" />
  <linearGradient
     id="a"
     gradientUnits="userSpaceOnUse"
     x1="23.42582167407"
     x2="23.0660823924"
     xlink:href="#b"
     y1="18.30644666985"
     y2="18.6661837706"
     gradientTransform="matrix(2.7789894,0,0,2.7789894,-3.068558,0.45374287)" />
  <linearGradient
     id="b">
    <stop
       offset="0"
       stop-color="#fff"
       id="stop3" />
    <stop
       offset="1"
       stop-color="#fff"
       stop-opacity="0"
       id="stop5" />
  </linearGradient>
  <linearGradient
     id="c"
     gradientUnits="userSpaceOnUse"
     x1="21.82600389068"
     x2="15.48754689411"
     xlink:href="#b"
     y1="20.09389311534"
     y2="26.83266813693"
     gradientTransform="matrix(2.7789894,0,0,2.7789894,-3.068558,0.45374287)" />
  <linearGradient
     id="d"
     gradientUnits="userSpaceOnUse"
     x1="22.37630489068"
     x2="16.03784789411"
     xlink:href="#b"
     y1="20.50433311534"
     y2="27.24310813693"
     gradientTransform="matrix(2.7789894,0,0,2.7789894,-3.068558,0.45374287)" />
  <linearGradient
     id="e"
     gradientUnits="userSpaceOnUse"
     x1="15.46443376357"
     x2="14.75675512091"
     xlink:href="#b"
     y1="28.2611408071"
     y2="28.07241768174"
     gradientTransform="matrix(2.7789894,0,0,2.7789894,-3.068558,0.45374287)" />
  <linearGradient
     id="f"
     gradientTransform="matrix(0.4551186,-0.90179262,0.90179262,0.4551186,-852.91511,-363.9558)"
     gradientUnits="userSpaceOnUse"
     x1="40.749557"
     x2="30.932852"
     xlink:href="#b"
     y1="1001.4427"
     y2="1010.2888" />
  <linearGradient
     id="g"
     gradientTransform="matrix(0.4551186,-0.90179262,0.90179262,0.4551186,-843.60639,-347.53073)"
     gradientUnits="userSpaceOnUse"
     x1="40.749557"
     x2="30.932852"
     xlink:href="#b"
     y1="1001.4427"
     y2="1010.2888" />
  <filter
     id="h"
     color-interpolation-filters="sRGB"
     height="1.113"
     width="1.127924"
     x="-.063962"
     y="-.0565">
    <feGaussianBlur
       stdDeviation="2.1746765"
       id="feGaussianBlur13" />
  </filter>
  <linearGradient
     id="i"
     gradientUnits="userSpaceOnUse"
     x1="372.06885"
     x2="387.12045"
     y1="947.00079"
     y2="947.00079">
    <stop
       offset="0"
       stop-color="#828398"
       id="stop16" />
    <stop
       offset=".05013223"
       stop-color="#4f4e50"
       id="stop18" />
    <stop
       offset=".14024317"
       stop-color="#e8e5eb"
       id="stop20" />
    <stop
       offset=".23170672"
       stop-color="#e9d3d9"
       stop-opacity=".941176"
       id="stop22" />
    <stop
       offset=".76219523"
       stop-color="#c4c2c7"
       id="stop24" />
    <stop
       offset=".86999255"
       stop-color="#f4f1fa"
       id="stop26" />
    <stop
       offset=".93410021"
       stop-color="#b8b8bf"
       id="stop28" />
    <stop
       offset="1"
       stop-color="#c1bfcc"
       id="stop30" />
  </linearGradient>
  <linearGradient
     id="j"
     gradientUnits="userSpaceOnUse"
     x1="368.21414"
     x2="394.8298"
     y1="1018.9549"
     y2="1018.5878">
    <stop
       offset="0"
       stop-color="#130804"
       id="stop33" />
    <stop
       offset=".16970721"
       stop-color="#0f0704"
       id="stop35" />
    <stop
       offset=".23766069"
       stop-color="#323033"
       id="stop37" />
    <stop
       offset=".71842611"
       stop-color="#323033"
       id="stop39" />
    <stop
       offset=".84821641"
       stop-color="#141215"
       id="stop41" />
    <stop
       offset="1"
       stop-color="#00010e"
       id="stop43" />
  </linearGradient>
  <linearGradient
     id="k"
     gradientUnits="userSpaceOnUse"
     x1="367.84705"
     x2="372.25238"
     y1="904.78284"
     y2="917.9989">
    <stop
       offset="0"
       stop-color="#2d2d39"
       id="stop46" />
    <stop
       offset="1"
       stop-color="#acabb0"
       id="stop48" />
  </linearGradient>
  <linearGradient
     id="l"
     gradientUnits="userSpaceOnUse"
     x1="389.50668"
     x2="414.05841"
     y1="902.21301"
     y2="908.79163">
    <stop
       offset="0"
       stop-color="#59585d"
       id="stop51" />
    <stop
       offset=".19257796"
       stop-color="#010103"
       id="stop53" />
    <stop
       offset=".54332471"
       stop-color="#5b5b5d"
       id="stop55" />
    <stop
       offset="1"
       stop-color="#171719"
       id="stop57" />
  </linearGradient>
  <linearGradient
     id="m"
     gradientUnits="userSpaceOnUse"
     x1="-353.81839"
     x2="-353.81839"
     y1="903.40106"
     y2="883.11084">
    <stop
       offset="0"
       stop-color="#202024"
       id="stop60" />
    <stop
       offset=".3368493"
       stop-color="#919095"
       id="stop62" />
    <stop
       offset=".53881687"
       stop-color="#4e4d51"
       id="stop64" />
    <stop
       offset=".69465232"
       stop-color="#cfcfd1"
       id="stop66" />
    <stop
       offset="1"
       stop-color="#69696b"
       id="stop68" />
  </linearGradient>
  <linearGradient
     id="n"
     gradientUnits="userSpaceOnUse"
     x1="338.84512"
     x2="338.84512"
     y1="903.66016"
     y2="883.85742">
    <stop
       offset="0"
       stop-color="#181820"
       id="stop71" />
    <stop
       offset=".03511503"
       stop-color="#86858a"
       id="stop73" />
    <stop
       offset=".14091089"
       stop-color="#7a797e"
       id="stop75" />
    <stop
       offset=".19626147"
       stop-color="#2f2e33"
       id="stop77" />
    <stop
       offset=".33304867"
       stop-color="#414045"
       id="stop79" />
    <stop
       offset=".43142435"
       stop-color="#545358"
       id="stop81" />
    <stop
       offset=".56074804"
       stop-color="#ebeaf0"
       id="stop83" />
    <stop
       offset=".69158942"
       stop-color="#abaaaf"
       id="stop85" />
    <stop
       offset=".85981399"
       stop-color="#d7d6dc"
       id="stop87" />
    <stop
       offset="1"
       stop-color="#66656a"
       id="stop89" />
  </linearGradient>
  <linearGradient
     id="o"
     gradientUnits="userSpaceOnUse"
     x1="367.84705"
     x2="415.57172"
     y1="-67.365196"
     y2="-50.845123">
    <stop
       offset="0"
       stop-color="#c7c6cb"
       id="stop92" />
    <stop
       offset=".54332471"
       stop-color="#fcfcfd"
       id="stop94" />
    <stop
       offset="1"
       stop-color="#d8d8da"
       id="stop96" />
  </linearGradient>
  <filter
     id="p"
     color-interpolation-filters="sRGB"
     height="1.272905"
     width="1.039886"
     x="-.019943"
     y="-.136453">
    <feGaussianBlur
       stdDeviation=".19828681"
       id="feGaussianBlur99" />
  </filter>
  <radialGradient
     id="q"
     cx="23.896"
     cy="3.99"
     gradientTransform="matrix(0,8.3696538,-11.047885,0,106.37671,-200.07712)"
     gradientUnits="userSpaceOnUse"
     r="20.396999">
    <stop
       offset="0"
       stop-color="#fff"
       id="stop102" />
    <stop
       offset=".26238"
       stop-color="#ddd"
       id="stop104" />
    <stop
       offset=".66094"
       stop-color="#abacae"
       id="stop106" />
    <stop
       offset="1"
       stop-color="#89898b"
       id="stop108" />
  </radialGradient>
  <filter
     id="r"
     color-interpolation-filters="sRGB"
     height="1.072"
     width="1.072"
     x="-.036"
     y="-.036">
    <feGaussianBlur
       stdDeviation=".60996385"
       id="feGaussianBlur111" />
  </filter>
  <path
     inkscape:connector-curvature="0"
     id="path114"
     style="fill:none;stroke:#292929;stroke-width:1.98107898;stroke-linecap:round;stroke-linejoin:round;stroke-opacity:0.15969603;filter:url(#r)"
     d="m 43.853058,23.462015 c 0,11.229591 -9.102537,20.332129 -20.332128,20.332129 -11.229591,0 -20.3321284,-9.102538 -20.3321284,-20.332129 0,-11.22959 9.1025374,-20.3321277 20.3321284,-20.3321277 11.229591,0 20.332128,9.1025377 20.332128,20.3321277 z"
     transform="matrix(2.7789894,0,0,2.7789894,-3.068558,-4.640677)" />
  <path
     inkscape:connector-curvature="0"
     style="fill:url(#q);stroke-width:2.89757729"
     id="path116"
     d="m 62.295857,1.1596689 c -32.774503,0 -59.4003469,26.6258421 -59.4003469,59.4003451 0,32.774503 26.6258439,59.400346 59.4003469,59.400346 32.774504,0 59.400343,-26.625843 59.400343,-59.400346 0,-32.774503 -26.625839,-59.4003451 -59.400343,-59.4003451 z" />
  <path
     style="fill:url(#linearGradient1199);stroke-width:2.89757729;fill-opacity:1"
     inkscape:connector-curvature="0"
     id="path118"
     d="m 62.295857,1.1596689 c -32.774503,0 -59.4003469,26.6258421 -59.4003469,59.4003451 0,32.774503 26.6258439,59.400346 59.4003469,59.400346 32.774504,0 59.400343,-26.625843 59.400343,-59.400346 0,-32.774503 -26.625839,-59.4003451 -59.400343,-59.4003451 z" />
  <path
     style="fill:none;stroke:#ffffff;stroke-width:5.50539732;stroke-linecap:round;stroke-linejoin:round"
     inkscape:connector-curvature="0"
     id="path120"
     d="m 118.79863,60.560014 c 0,31.206914 -25.295858,56.502766 -56.502773,56.502766 -31.206914,0 -56.5027692,-25.295852 -56.5027692,-56.502766 0,-31.206912 25.2958552,-56.5027674 56.5027692,-56.5027674 31.206915,0 56.502773,25.2958554 56.502773,56.5027674 z" />
  <path
     style="fill:none;stroke:#fbfbfb;stroke-width:0.57951653;stroke-linecap:round;stroke-linejoin:round"
     inkscape:connector-curvature="0"
     id="path122"
     d="m 62.295857,1.1599587 c -32.774503,0 -59.4003469,26.6252633 -59.4003469,59.4003443 0,32.775084 26.6252629,59.400347 59.4003469,59.400347 32.775084,0 59.400343,-26.625263 59.400343,-59.400347 0,-32.775081 -26.625839,-59.4003443 -59.400343,-59.4003443 z" />
  <path
     style="opacity:1;fill:#f2f5f6;fill-opacity:1;stroke:none;stroke-width:8;stroke-linecap:square;stroke-linejoin:bevel;stroke-miterlimit:4;stroke-dasharray:none;stroke-opacity:1"
     d="M 62.294882,25.576615 A 34.983051,34.983051 0 0 0 55.130819,26.359818 17.762712,17.762712 0 0 1 63.109335,41.170365 17.762712,17.762712 0 0 1 45.345663,58.932084 17.762712,17.762712 0 0 1 29.363241,48.885209 34.983051,34.983051 0 0 0 27.31246,60.559037 34.983051,34.983051 0 0 0 62.294882,95.543412 34.983051,34.983051 0 0 0 97.279257,60.559037 34.983051,34.983051 0 0 0 62.294882,25.576615 Z"
     id="path916"
     inkscape:connector-curvature="0" />
</svg>

<svg width="128" height="128" version="1.1" xmlns="http://www.w3.org/2000/svg">
<defs>
<linearGradient id="linearGradient1199" x1="30.014" x2="90.51" y1="25.306" y2="102.05" gradientUnits="userSpaceOnUse"/>
</defs>
<filter x="-.063962" y="-.0565" width="1.1279" height="1.113" color-interpolation-filters="sRGB">
<feGaussianBlur stdDeviation="2.1746765"/>
</filter>
<filter x="-.019943" y="-.13645" width="1.0399" height="1.2729" color-interpolation-filters="sRGB">
<feGaussianBlur stdDeviation=".19828681"/>
</filter>
<radialGradient id="q" cx="23.896" cy="3.99" r="20.397" gradientTransform="matrix(0 8.3697 -11.048 0 106.38 -200.08)" gradientUnits="userSpaceOnUse">
<stop stop-color="#fff" offset="0"/>
<stop stop-color="#ddd" offset=".26238"/>
<stop stop-color="#abacae" offset=".66094"/>
<stop stop-color="#89898b" offset="1"/>
</radialGradient>
<filter id="r" x="-.036" y="-.036" width="1.072" height="1.072" color-interpolation-filters="sRGB">
<feGaussianBlur stdDeviation=".60996385"/>
</filter>
<path transform="matrix(2.779 0 0 2.779 -3.0686 -4.6407)" d="m43.853 23.462c0 11.23-9.1025 20.332-20.332 20.332s-20.332-9.1025-20.332-20.332c0-11.23 9.1025-20.332 20.332-20.332s20.332 9.1025 20.332 20.332z" fill="none" filter="url(#r)" stroke="#292929" stroke-linecap="round" stroke-linejoin="round" stroke-opacity=".1597" stroke-width="1.9811"/>
<path d="m62.296 1.1597c-32.775 0-59.4 26.626-59.4 59.4s26.626 59.4 59.4 59.4c32.775 0 59.4-26.626 59.4-59.4s-26.626-59.4-59.4-59.4z" fill="url(#q)" stroke-width="2.8976"/>
<path d="m62.296 1.1597c-32.775 0-59.4 26.626-59.4 59.4s26.626 59.4 59.4 59.4c32.775 0 59.4-26.626 59.4-59.4s-26.626-59.4-59.4-59.4z" fill="url(#linearGradient1199)" stroke-width="2.8976"/>
<path d="m118.8 60.56c0 31.207-25.296 56.503-56.503 56.503-31.207 0-56.503-25.296-56.503-56.503 0-31.207 25.296-56.503 56.503-56.503 31.207 0 56.503 25.296 56.503 56.503z" fill="none" stroke="#fff" stroke-linecap="round" stroke-linejoin="round" stroke-width="5.5054"/>
<path d="m62.296 1.16c-32.775 0-59.4 26.625-59.4 59.4 0 32.775 26.625 59.4 59.4 59.4s59.4-26.625 59.4-59.4c0-32.775-26.626-59.4-59.4-59.4z" fill="none" stroke="#fbfbfb" stroke-linecap="round" stroke-linejoin="round" stroke-width=".57952"/>
<path d="m62.295 25.577a34.983 34.983 0 0 0-7.1641 0.7832 17.763 17.763 0 0 1 7.9785 14.811 17.763 17.763 0 0 1-17.764 17.762 17.763 17.763 0 0 1-15.982-10.047 34.983 34.983 0 0 0-2.0508 11.674 34.983 34.983 0 0 0 34.982 34.984 34.983 34.983 0 0 0 34.984-34.984 34.983 34.983 0 0 0-34.984-34.982z" fill="#f2f5f6"/>
</svg>
